X: 13677
T: Fool's Jig, Bampton
R: jig
M: 6/8
K: Gmajor
DEF|G2F G2E|D3 G3|A2G F2E|D3 c2A|
B2c d2B|G3 F2G|A2B c2^c|d3 DEF|
G2F G2E|D3 G3|A2G F2E|D3 c2A|
B2c d2B|e2c A2F|G3 G3|G3||
B2c|d3 d2B|G3 B2d|e3 e2c|A3 B2c|
d3 d3|e2d c2B|A2G F2E|D3 DEF|
G2F G2E|D3 G3|A2G F2E|D3 c2A|
B2c d2B|e2c A2F|G3 G3|G3||

